src/images/crypto-icon-svg/btcd.svg

<svg xmlns="http://www.w3.org/2000/svg" width="32" height="32" viewBox="0 0 32 32">
  <g fill="none">
    <circle cx="16" cy="16" r="16" fill="#F60"/>
    <path fill="#FFF" d="M17.0784132,19.3558047 C22.1584192,17.7890574 20.345117,12.5223621 17.0784132,12.3223237 C17.9084141,12.3223237 18.5861149,9.94454112 18.5861149,7 C26.5617244,7.56665687 30.3091289,20.7114285 18.3461147,24.8226401 C18.4226148,23.755938 17.9856142,20.7781419 17.0787132,19.3558047 L17.0784132,19.3558047 Z M6,17.7998373 L6,12.3330019 L6.01090001,12.3330019 C8.89530344,12.3219169 11.2224062,9.93294764 11.2115062,7.01067821 L16.7725128,7.01067821 C16.7725128,12.9774571 11.9544071,17.7998373 6,17.7998373 Z M13.2873087,16.8109336 L13.2874087,16.8109336 C16.5869126,19.5220796 16.7726128,24.0888947 16.7726128,25 L11.2115062,25 C11.2115062,21.9776605 9.24490385,19.5331646 6.80850096,19.5331646 C10.9383059,18.8665394 11.7800069,18.1665574 13.2873087,16.8109336 Z"/>
  </g>
</svg>

<svg xmlns="http://www.w3.org/2000/svg" width="32" height="32"><g fill="none"><circle cx="16" cy="16" r="16" fill="#F60"/><path fill="#FFF" d="M17.078 19.356c5.08-1.567 3.267-6.834 0-7.034.83 0 1.508-2.377 1.508-5.322 7.976.567 11.723 13.711-.24 17.823.077-1.067-.36-4.045-1.267-5.467zM6 17.8v-5.467h.01c2.885-.011 5.212-2.4 5.202-5.322h5.56C16.773 12.977 11.955 17.8 6 17.8zm7.287-.99c3.3 2.712 3.486 7.279 3.486 8.19h-5.561c0-3.022-1.967-5.467-4.403-5.467 4.13-.666 4.971-1.366 6.478-2.722z"/></g></svg>
